X:154
T:Eunyssagh Vona
T:Mona's Delight
Z:Jack Campin, http://www.campin.me.uk/
F:Jack Campin's Nine-Note Tunebook
% last edit 27-02-2013
M:C|
L:1/8
N:Dance video at http://www.youtube.com/watch?v=69vw-QTyHpQ
N:the usual key
Q:1/2=104
K:G
D2|G3A  B2AG|AGAB c2BA|G3B  d2BG|FADA FAD2|
   G3A  B2AG|AGAB c2BA|BdBG AcAF|G2GF G2 :|
Bc|d2dc Bcd2|c2cB ABc2|B2BA GABG|AGFE DEFD|
   B2BA GABG|c2cB ABcA|BdBG AcAF|G2GF G2 :|


% == Welsh tunes ============================================================

